X:1
T:James Gibb editions
T:Regina caeli a 4 - Guerrero
T:#
%%score [ 1 2 3 4 ]
L:1/8
Q:1/4=100
M:2/2
K:Eb
V:1 treble nm="Soprano"
V:2 treble nm="Alto"
V:3 treble-8 nm="Tenor"
V:4 bass nm="Bass"
V:1
"^Francisco Guerrero\n(1528-99)""^Regina caeli a 4" z8 | z8 | z8 | z4 F4- | F4 (G4 | A4) (A4 | %6
w: |||Re\-|* gi\-|* na|
 G4) (F4 | G8) |[M:2/2] (F8 | E4 (A4 | B4) A4- | A4 B2 c2- | c2 B2) c4- | c4 z4 | c4 (B4 | %15
w: * cae\-|||li lae\-|* ta\-||* * re:||al- le\-|
 A4) (G4- | G4 F4 | =E2 F3 E E2) | F8 | z8 | z8 | (F4 G4) | E4 G4 | (B4 c4- | c2) B2 A4 | G8 | %26
w: * lu\-|||ia.|||Qui\- *|a quem|me\- *|* ru- i-|sti|
 F6 (=E2 | F4 G4 | A4 G2 F2- | F2 =E2) F4- | F4 z4 | z8 | c8 | B4 (c3 B | A2 G2 A2) B2 | %35
w: por- ta\-|||* * re:|||al-|le- lu\- *|* * * ia,|
 (G3 A) B2 (c2- | c2 =B2) c4- | c4 z2 A2 | G2 (A3 GAF | G2 F4 =E2) | F4 c4- | c4 =B4 | c4 e4 | %43
w: al\- * le- lu\-|* * ia,|* al-|le- lu\- * * *||ia. Re\-|* sur-|re- xit|
 f4 (e4 | d4 (c4- | c4 =B4) | c2 e2 c2 d2) | (e_dcB A2 B2) | c8 | z8 | z4 A4 | B4 (A4- | %52
w: sic- ut|* di\-||xit: al- le\- *|lu\- * * * * *|ia.||O-|ra pro|
 A2 G2) F4 | E2 (G3 F E2- | E2 D2) E4 | z8 | (F4 G4) | (A6 G2 | F4 (E3 F | G=A B4 A2) | B8 | %61
w: * * no-|bis De\- * *|* * um:||al\- *|le\- *|* lu\- *||ia,|
 A4 G4 | B4[Q:1/4=99] A4- |[Q:1/4=97] A2[Q:1/4=96] G2[Q:1/4=96] E2[Q:1/4=95] G2- | %64
w: al- le-|lu- ia,|* al- le- lu\-|
[Q:1/4=94] G[Q:1/4=94]F[Q:1/4=93] F4[Q:1/4=91] =E2) |[Q:1/4=88] F16 |] %66
w: |ia.|
V:2
 F8 | (G4 A4) | F2 (A3 G F2) | E2 _D2 (C2 B,C | _DE F4 =E2 | F8) | D4 z2 C2 | D4 E4 | %8
w: Re-|gi\- *|na cae\- * *|li lae- ta\- * *|||re, re-|gi- na|
[M:2/2] (_D2 C4 B,2) | C4 z4 | E8 | (F6 =E2 | F4) G4 | z2 G4 (F2- | FE C2) (D2 E2 | F6 E2 | %16
w: cae\- * *|li|lae-|ta\- *|* re:|al- le\-|* * * lu\- *||
 D2 E2) C4- | C8 | z2 (C4 D2- | D2) B,2 C2 D2 | E2 (F3 E_DC | B,2 C2) D2 E2- | E2 C2 D2 E2 | %23
w: * * ia.||Qui\- *|* a quem me-|ru- i\- * * *|* sti por- ta\-|* re, me- ru-|
 F2 G2 (C3 D | E4) F4 | C4 z4 | z2 F2 G4 | A2 F4 =E2 | (F3 _EDC D2- | D2) B,2 C4 | (D2 CB,) C4- | %31
w: i- sti por\- *|* ta-|re,|qui- a|quem me- ru-|i\- * * * *|* sti por-|ta\- * * re:|
 C4 z2 F2- | F2 =E2 (F2 C2 | E2 _D2) C4 | z4 z2 F2- | F2 =E2 (F2 C2 | E2 D2) C2 A2 | G2 (A3 G F2 | %38
w: * al\-|* le- lu\- *|* * ia,|al\-|* le- lu\- *|* * ia, al-|le- lu\- * *|
 =E2 F2) (C3 D | EDCB, C4) | z2 A2 G2 A2- | A2 G2 F2 F2 | G2 C2 z2 G2 | (FEFG) A2 G2 | B2 B2 A4 | %45
w: * * ia. *||Re- sur- re\-|* xit si- cut|di- xit, re-|sur\- * * * re- xit|sic- ut di-|
 G4 z2 G2- | G2 E2 F4 | E2 A4 F2 | (G2 E2 FGAF | G2 E2) F4 | z2 =E2 F2 F2 | _D2 E2 (C2 F2- | %52
w: xit al\-|* le- lu-|ia, al- le-|lu\- * * * * *|* * ia.|O- ra pro|no- bis De\- *|
 F2 E_DCB, C2- | C2 B,A, G,2 A,2) | B,4 B,2 C2 | D2 E2 F3 E | (D2 C2 B,4) | C4 F,2 G,2 | %58
w: ||um: al- le-|lu- ia, al- le-|lu\- * *|ia, al- le-|
 (A,2 B,2) C4 | z2 F2 G2 F2 | D2 G2 F2 (D2 | C4) B,2 E2 | D2 (F3 E C2 | E3 _D B,2 D2- | %64
w: lu\- * ia,|al- le- lu-|ia, al- le- lu\-|* ia, al-|le- lu\- * *||
 DCA,B, C4) | C16 |] %66
w: |ia.|
V:3
 z8 | z8 | F8 | G4 A2 B2- | B2 A2 B2 (c2- | c2 FG AB c2- | c2 =B2) c4- | c2 _B2 G2 B2 | %8
w: ||Re-|gi- na cae\-|* li lae- ta\-||* * re,|* re- gi- na|
[M:2/2][K:treble-8] (A3 G F4) | G2 (c3 B) (A2- | A2 G2) A4 | F6 G2 | F2 (f4 ed | e2) e2 d4 | %14
w: cae\- * *|li lae\- * ta\-|* * re,|lae- ta-|re: al\- * *|* le- lu-|
 c4 z4 | c8 | B4 (A4- | A2 GF G4) | F8 | z8 | z8 | z4 B4 | c2 A2 B2 c2 | d2 (e3 dcB | %24
w: ia|al-|le- lu\-||ia.|||qui-|a quem me- ru\-|* i\- * * *|
 A2 B2) c2 f2- | f2 e4 d2 | c2 d2 B2 c2- | c2 A2 (B2 c2) | F4 z4 | B6 =A2 | B2 F2 A2 G2 | %31
w: * * sti, qui\-|* a quem|me- ru- i- sti|* por- ta\- *|re:|al- le-|lu- ia, al- le-|
 (FGAB c2 B2 | c4) F4 | z2 f4 =e2 | (f2 c2 e2 _d2) | c4 z4 | z2 G2 (ABcd | e2 f2 c4 | %38
w: lu\- * * * * *|* ia,|al- le-|lu\- * * *|ia,|al- le\- * * *|* lu- ia,|
 z2 (FGAB c2- | cB A2) G2 G2 | F2 f2 =e2 f2- | f2 e2 d2 d2 | cdef g2 e2) | d4 z2 g2- | g2 f4 (e2- | %45
w: al\- * * * *|* * * le- lu-|ia. Re- sur- re\-|* xit si- cut|di\- * * * * *|xit, sic\-|* ut di\-|
 ec e2 d4) | c4 z4 | z2 c2 f2 f2 | (e_dcB ABcA | B2) c4 B2 | c4 F4 | z4 A4 | B4 A4 | (G3 A B2) E2 | %54
w: |xit:|al- le- lu-|ia, * * * * * * *|* al- le-|lu- ia.|O-|ra pro|no\- * * bis|
 F4 E4 | z2 B2 c2 (d2- | de f4 =e2) | f2 (FGAB c2) | (F3 G ABcd | e2 d2) c4 | B2 e2 d2 (f2 | %61
w: De- um:|al- le- lu\-||ia, al\- * * * *|le\- * * * * *|* * lu-|ia, al- le- lu\-|
 f)e c2 e2 (B2- | BAFG AB c2- | c2 B2) G2 (B2- | BA F2 G4) | F16 |] %66
w: * * * ia, al\-||* * le- lu\-||ia.|
V:4
 z8 | z8 | z8 | z8 | z8 | F,8 | (G,4 A,4 | G,4) E,4 | (F,3 E, _D,4) | C,4 F,4 | E,4 A,,2 (A,2- | %11
w: |||||Re-|gi\- *|* na|cae\- * *|li lae-|ta- re, lae\-|
 A,G,F,E, _D,2 C,2) | _D,4 C,4 | C4 B,4 | (A,4 G,4 | F,3 E, C,D,E,F, | G,2 E,2 F,4) | C,8 | %18
w: |ta- re:|al- le-|lu\- *|||ia.|
 z4 (F,4 | G,4) E,2 F,2 | G,2 A,2 B,4- | B,2 A,2 G,4 | A,4 G,2 C2 | (B,2 E,2 A,4- | A,2 G,2) F,4 | %25
w: Qui\-|* a quem|me- ru- i\-|* sti por-|ta- re, por-|ta\- * *|* * re,|
 z2 C4 B,2 | A,2 B,2 G,2 C,2 | F,4 z2 (C2- | C2 A,2) (B,3 A, | G,4) F,4 | z2 F,4 =E,2 | %31
w: qui- a|quem me- ru- i-|sti por\-|* * ta\- *|* re:|al- le-|
 (F,2 C,2 E,2 _D,2) | C,4 z4 | z8 | z2 C4 B,2 | (C4 B,2 A,2) | G,4 z2 F,2 | C2 F,2 (F,G,A,B, | %38
w: lu\- * * *|ia,||al- le-|lu\- * *|ia, al-|le- lu- ia, * * *|
 C4) z2 F,2 | (E,2 F,2) C,4 | F,4 z4 | z8 | z4 C4- | C2 B,2 C4 | G,2 B,2 (F,G,A,B, | C2 C,2) G,4 | %46
w: * al-|le\- * lu-|ia.||Re\-|* sur- re-|xit sic- ut * * *|* * di-|
 C,2 C2 A,2 B,2 | C2 A,2 _D2 D2 | C2 C,2 F,2 F,2 | E,2 C,2 _D,2 D,2 | C,4 z4 | z2 E,2 F,2 F,2 | %52
w: xit: al- le- lu-|ia, al- le- lu-|ia, al- le- lu-|ia, al- le- lu-|ia.|O- ra pro|
 _D,2 E,2 (F,4 | C,2 E,3 _D, C,2) | B,,4 z2 E,2 | F,2 G,2 =A,2 B,2- | B,2 A,2 (G,4 | F,6 E,2) | %58
w: no- bis De\-||um: al-|le- lu- ia, al\-|* le- lu\-||
 _D,4 z2 C,2- | C,2 D,2 E,2 F,2 | G,2 E,2 (B,3 A, | F,2 A,2 E,3 D, | B,,C,D,E, F,3 E,) | %63
w: ia, al\-|* le- lu- ia,|al- le- lu\- *|||
 C,2 E,3 _D, (B,,2 | _D,4 C,4) | F,16 |] %66
w: ia, al- le- lu\-||ia.|

